X:1
T: Big Reel Of Ballynacally, The
D:Solas: "Sunny Spells And Scattered Showers", 1997
M:2/2
R:Reel
K:Gmaj
Q:160
|: DGGG A2dc | AGFG AGFG | DGGG A2dc | AGFG F3E |
|DG (3GGG A2 dc| AGFG ABcA|~d3 e fd(3ddd|1 dedc AGGF:|2 dedc AGGA||
|:g2 dg(3ggg dg|(3ggg ag fdef|(3ggg fg ~a3 g|fdcA BGBd|
|g2 fg a=f(3fff|=fgfd e2 ec|~d3 e fedc|1 AGFG AGGA:|2 AGFG AGGD|